images/icons/dribbble.svg

<svg fill="none" height="24" viewBox="0 0 24 24" width="24" xmlns="http://www.w3.org/2000/svg" xmlns:xlink="http://www.w3.org/1999/xlink"><clipPath id="a"><path d="m0 0h24v24h-24z"/></clipPath><g clip-path="url(#a)"><path d="m12 23.52c6.3623 0 11.52-5.1577 11.52-11.52 0-6.36234-5.1577-11.52002-11.52-11.52002-6.36234 0-11.52002 5.15768-11.52002 11.52002 0 6.3623 5.15768 11.52 11.52002 11.52z" fill="#ea4c89"/><path clip-rule="evenodd" d="m12 0c-6.62472 0-12 5.37528-12 12 0 6.6247 5.37528 12 12 12 6.6117 0 12-5.3753 12-12 0-6.62472-5.3883-12-12-12zm7.9262 5.53145c1.4317 1.74403 2.2907 3.96965 2.3168 6.37745-.3384-.0651-3.7224-.7549-7.1324-.3254-.0781-.1692-.1431-.3514-.2212-.5336-.2083-.4946-.4426-1.0022-.6768-1.48374 3.7744-1.53578 5.4924-3.74837 5.7136-4.03471zm-7.9262-3.76139c2.603 0 4.9848.97614 6.7939 2.57701-.1822.26031-1.731 2.32973-5.3752 3.69631-1.679-3.0846-3.54018-5.60954-3.8265-6 .7679-.18221 1.5748-.27332 2.4078-.27332zm-4.36008.96313c.27331.36442 2.09544 2.90239 3.80038 5.92191-4.78954 1.27548-9.01947 1.24946-9.47501 1.24946.66377-3.1757 2.81129-5.81779 5.67463-7.17137zm-5.89589 9.27981c0-.1041 0-.2082 0-.3124.44252.0131 5.41433.0781 10.52927-1.4576.2994.5726.5727 1.1583.833 1.744-.1302.039-.2733.0781-.4035.1171-5.28414 1.705-8.09542 6.3645-8.32969 6.7549-1.62691-1.8091-2.62908-4.2169-2.62908-6.846zm10.25597 10.243c-2.36875 0-4.55532-.807-6.28634-2.1606.18223-.3774 2.26466-4.3861 8.04334-6.4034.0261-.013.0391-.013.0651-.0261 1.4447 3.7354 2.0304 6.8721 2.1866 7.7701-1.2365.5336-2.59.82-4.0087.82zm5.7137-1.7571c-.1042-.6247-.6508-3.6182-1.9913-7.3015 3.2147-.5076 6.026.3254 6.3774.4425-.4425 2.8503-2.0825 5.3102-4.3861 6.859z" fill="#c32361" fill-rule="evenodd"/></g></svg>

<svg width="24" height="24" viewBox="0 0 24 24" fill="none" xmlns="http://www.w3.org/2000/svg">
<g clip-path="url(#clip0_1450_716)">
<path d="M12 23.52C18.3623 23.52 23.52 18.3623 23.52 12C23.52 5.63766 18.3623 0.47998 12 0.47998C5.63766 0.47998 0.47998 5.63766 0.47998 12C0.47998 18.3623 5.63766 23.52 12 23.52Z" fill="#EA4C89"/>
<path fill-rule="evenodd" clip-rule="evenodd" d="M12 0C5.37528 0 0 5.37528 0 12C0 18.6247 5.37528 24 12 24C18.6117 24 24 18.6247 24 12C24 5.37528 18.6117 0 12 0ZM19.9262 5.53145C21.3579 7.27548 22.2169 9.5011 22.243 11.9089C21.9046 11.8438 18.5206 11.154 15.1106 11.5835C15.0325 11.4143 14.9675 11.2321 14.8894 11.0499C14.6811 10.5553 14.4468 10.0477 14.2126 9.56616C17.987 8.03038 19.705 5.81779 19.9262 5.53145ZM12 1.77006C14.603 1.77006 16.9848 2.7462 18.7939 4.34707C18.6117 4.60738 17.0629 6.6768 13.4187 8.04338C11.7397 4.95878 9.87852 2.43384 9.5922 2.04338C10.3601 1.86117 11.167 1.77006 12 1.77006ZM7.63992 2.73319C7.91323 3.09761 9.73536 5.63558 11.4403 8.6551C6.65076 9.93058 2.42083 9.90456 1.96529 9.90456C2.62906 6.72886 4.77658 4.08677 7.63992 2.73319ZM1.74403 12.013C1.74403 11.9089 1.74403 11.8048 1.74403 11.7006C2.18655 11.7137 7.15836 11.7787 12.2733 10.243C12.5727 10.8156 12.846 11.4013 13.1063 11.987C12.9761 12.026 12.833 12.0651 12.7028 12.1041C7.41866 13.8091 4.60738 18.4686 4.37311 18.859C2.7462 17.0499 1.74403 14.6421 1.74403 12.013ZM12 22.256C9.63125 22.256 7.44468 21.449 5.71366 20.0954C5.89589 19.718 7.97832 15.7093 13.757 13.692C13.7831 13.679 13.7961 13.679 13.8221 13.6659C15.2668 17.4013 15.8525 20.538 16.0087 21.436C14.7722 21.9696 13.4187 22.256 12 22.256ZM17.7137 20.4989C17.6095 19.8742 17.0629 16.8807 15.7224 13.1974C18.9371 12.6898 21.7484 13.5228 22.0998 13.6399C21.6573 16.4902 20.0173 18.9501 17.7137 20.4989Z" fill="#C32361"/>
</g>
<defs>
<clipPath id="clip0_1450_716">
<rect width="24" height="24" fill="white"/>
</clipPath>
</defs>
</svg>
